static/assets/images/exchanges/shadow.svg

<svg width="223" height="256" viewBox="0 0 223 256" fill="none" xmlns="http://www.w3.org/2000/svg">
<path fill-rule="evenodd" clip-rule="evenodd" d="M82.5267 210.202C103.659 209.757 123.79 201.082 138.805 186.18C154.154 170.721 162.829 149.813 162.829 128.126C162.829 106.329 154.154 85.4206 138.805 69.9619C123.79 55.0594 103.659 46.3847 82.5267 45.9399L82.9716 45.3838H82.7491L121.009 7.23772C128.016 0.120077 138.694 -2.2154 147.48 2.34434C159.826 8.90591 171.282 17.3581 181.292 27.4785C207.985 54.1697 223 90.3139 223 128.126C223 165.828 207.985 201.972 181.292 228.663C171.282 238.672 159.937 247.124 147.703 253.575C139.027 258.246 128.35 255.91 121.232 248.793L82.5267 210.202ZM23.6903 71.0741C38.2603 56.3939 57.9466 47.9417 78.5227 47.4969C77.7441 48.3866 76.6319 49.8323 75.2973 51.6118C72.5167 55.5042 68.8464 61.0649 65.0648 68.2937C57.7242 82.6402 50.2723 103.215 50.2723 128.126C50.2723 153.038 57.7242 173.613 65.0648 187.959C68.8464 195.188 72.5167 200.749 75.2973 204.53C76.6319 206.42 77.7441 207.755 78.5227 208.756C57.9466 208.2 38.2603 199.859 23.6903 185.179C8.56409 170.054 0 149.479 0 128.126C0 106.662 8.56409 86.199 23.6903 71.0741Z" fill="#FBC67E"/>
</svg>

<svg xmlns="http://www.w3.org/2000/svg" fill="none" viewBox="0 0 223 256"><path fill="#FBC67E" fill-rule="evenodd" d="M82.527 210.202c21.132-.445 41.263-9.12 56.278-24.022 15.349-15.459 24.024-36.367 24.024-58.054 0-21.797-8.675-42.705-24.024-58.164-15.015-14.903-35.146-23.577-56.278-24.022l.445-.556h-.223l38.26-38.146c7.007-7.118 17.685-9.453 26.471-4.894a140 140 0 0 1 33.812 25.135C207.985 54.169 223 90.314 223 128.126c0 37.702-15.015 73.846-41.708 100.537-10.01 10.009-21.355 18.461-33.589 24.912-8.676 4.671-19.353 2.335-26.471-4.782zM23.69 71.074c14.57-14.68 34.257-23.132 54.833-23.577-.779.89-1.891 2.335-3.226 4.115a141 141 0 0 0-10.232 16.682c-7.34 14.346-14.793 34.921-14.793 59.832s7.452 45.487 14.793 59.833c3.781 7.229 7.452 12.79 10.232 16.571 1.335 1.89 2.447 3.225 3.226 4.226-20.576-.556-40.263-8.897-54.833-23.577C8.564 170.054 0 149.479 0 128.126c0-21.464 8.564-41.927 23.69-57.052" clip-rule="evenodd"/></svg>
